src/Soccer/Services/Soccer.API/_Shared/App_Data/SvgFiles/score_change.svg

<svg width="16" height="16" fill="none" xmlns="http://www.w3.org/2000/svg"><path d="M8 2C4.688 2 2 4.688 2 8s2.688 6 6 6 6-2.688 6-6-2.688-6-6-6zm0 .6c1.056 0 2.04.318 2.868.846L10.7 3.8H8l-1.032-.504.21-.618c.27-.048.54-.078.822-.078zm-1.482.228l-.204.618-1.536.768-.75.15a5.41 5.41 0 012.49-1.536zM8.6 4.4h1.8l1.614 2.154-.75 1.542-1.578.372-1.968-2.304L8.6 4.4zm-4.104.396L5 6.8l-.732 1.836-1.536.528a5.324 5.324 0 01.822-4.218l.942-.15zm8.64 1.536c.174.522.264 1.086.264 1.668 0 .864-.222 1.674-.582 2.4H12.2l-.504-2.004.9-1.8.54-.264zM5.6 6.8h1.8l1.686 1.968L8 10.4l-1.896.468-1.386-1.854L5.6 6.8zM8 11l1.8 1.2-.522 1.032c-.414.096-.84.168-1.278.168-1.05 0-2.022-.3-2.85-.822l.696-1.032L8 11zm4.2 0h.3c-.6.9-1.5 1.602-2.514 2.004l.414-.804 1.8-1.2z" fill="#fff"/></svg>

<svg width="16" height="16" fill="none" xmlns="http://www.w3.org/2000/svg">
  <circle cx="8" cy="8" r="6" fill="white" filter="url(#shadow)"/>
  <path d="M8 2C4.688 2 2 4.688 2 8C2 11.312 4.688 14 8 14C11.312 14 14 11.312 14 8C14 4.688 11.312 2 8 2ZM8 2.6C9.056 2.6 10.04 2.918 10.868 3.446L10.7 3.8H8.6H8L6.968 3.296L7.178 2.678C7.448 2.63 7.718 2.6 8 2.6ZM6.518 2.828L6.314 3.446L4.778 4.214L4.028 4.364C4.7 3.638 5.552 3.104 6.518 2.828ZM8.6 4.4H10.4L12.014 6.554L11.264 8.096L9.686 8.468L7.718 6.164L8.6 4.4ZM4.496 4.796L5 6.8L4.268 8.636L2.732 9.164C2.648 8.786 2.6 8.402 2.6 8C2.6 6.86 2.954 5.816 3.554 4.946L4.496 4.796ZM13.136 6.332C13.31 6.854 13.4 7.418 13.4 8C13.4 8.864 13.178 9.674 12.818 10.4H12.2L11.696 8.396L12.596 6.596L13.136 6.332ZM5.6 6.8H7.4L9.086 8.768L8 10.4L6.104 10.868L4.718 9.014L5.6 6.8ZM8 11L9.8 12.2L9.278 13.232C8.864 13.328 8.438 13.4 8 13.4C6.95 13.4 5.978 13.1 5.15 12.578L5.846 11.546L8 11ZM12.2 11H12.5C11.9 11.9 11 12.602 9.986 13.004L10.4 12.2L12.2 11Z" fill="black"/>
</svg>
